X:110
T: Kane's
S: "First Collection of Traditional Irish Music" (M.Mulvihill)
Z: B.Black
L: 1/8
M: 6/8
R: jig
K: G
E|DEG BGG|dGG BGE|DEG BGG|ABA AGE|
DEG BGG|dGG BAG|gfg dBG|AGE G2 :|
B/d/|gfg ded|BGB def|g2e dBG|AGE GED|
gfg ded|BGB def|g2e dBG|AGE GED :|
DEG Bdd|cee Bdd|DEG BdB|AGE GED|
DEG Bdd|cee Bdd|gfg dBG|AGE G2 :|
